docs/icons/svg/file.svg

<svg width="24" height="24" viewBox="0 0 24 24" fill="none" xmlns="http://www.w3.org/2000/svg">
<path d="M6 22C5.45 22 4.97917 21.8042 4.5875 21.4125C4.19583 21.0208 4 20.55 4 20V4C4 3.45 4.19583 2.97917 4.5875 2.5875C4.97917 2.19583 5.45 2 6 2H13.175C13.4417 2 13.6958 2.05 13.9375 2.15C14.1792 2.25 14.3917 2.39167 14.575 2.575L19.425 7.425C19.6083 7.60833 19.75 7.82083 19.85 8.0625C19.95 8.30417 20 8.55833 20 8.825V20C20 20.55 19.8042 21.0208 19.4125 21.4125C19.0208 21.8042 18.55 22 18 22H6ZM12 9V4H6V20H18V10H13C12.7167 10 12.4792 9.90417 12.2875 9.7125C12.0958 9.52083 12 9.28333 12 9Z" fill="currentColor"/>
</svg>

<svg width="24" height="24" viewBox="0 0 24 24" fill="none" xmlns="http://www.w3.org/2000/svg">
<path d="M6 22c-.55 0-1.02-.196-1.412-.587A1.926 1.926 0 0 1 4 20V4c0-.55.196-1.02.588-1.413A1.926 1.926 0 0 1 6 2h7.175a1.975 1.975 0 0 1 1.4.575l4.85 4.85a1.975 1.975 0 0 1 .575 1.4V20c0 .55-.196 1.02-.587 1.413A1.926 1.926 0 0 1 18 22H6Zm6-13V4H6v16h12V10h-5a.968.968 0 0 1-.713-.287A.967.967 0 0 1 12 9Z" fill="currentColor"/>
</svg>
